X:1
T:Sicilian Circle
M:6/8
L:1/8
N:Jig-time version of Rickett's Hornpipe
S:Ford "Traditional Music in America" (1940)
Z:AK/Fiddler's Companion
K:D
(3A/B/c/ \
| dcd Adf | e^de Ace | fba gfe | dcB A2 (3A/B/c \
| dcd Adf | e^de Beg | fba gfe | dAf d2 :|
|: d/f/ \
| a^ga dfa | b^ab dgb | bag fed | cBA gfe \
| dcd  Adf | e^de Beg | fba gfe | dAf d2 :|
